X: 42448
T: Western, The
R: hornpipe
M: 4/4
K: Cmajor
gf|ec (3cBc Gc E2|ec (3cBc Gc EG|AF EF CF A,2|Ac (3Bcd c2 gf|
ec (3cBc Gc EG|ec (3cBc Gc EG|AF (3FGF CF A,c|Ac (3Bcd c2 gf:|
e2 ce (g2 g)e|fA df a2 gf|e2 ce ag fe|dc BA G2 gf|
e2 ce (g2 g)e|fA df a2 gf|(3ege ce (3ded Bd|c2 cB c2 gf:|

